image/whatsapp-svgrepo-com.svg

<svg width="24px" height="24px" viewBox="0 0 24 24" fill="none" xmlns="http://www.w3.org/2000/svg">
<path d="M8.88595 7.16985C9.06891 7.17475 9.27175 7.18465 9.46474 7.61303C9.59271 7.89821 9.80829 8.42321 9.9839 8.85087C10.1206 9.18366 10.233 9.45751 10.2611 9.51356C10.3254 9.64156 10.365 9.78926 10.2809 9.96156C10.271 9.98188 10.2617 10.0013 10.2526 10.02C10.1852 10.16 10.1372 10.2597 10.0237 10.3899C9.97709 10.4435 9.9285 10.5022 9.88008 10.5607C9.79494 10.6636 9.71035 10.7658 9.63785 10.838C9.50924 10.9659 9.37563 11.1039 9.52402 11.3599C9.6725 11.6159 10.1919 12.4579 10.9587 13.1373C11.783 13.8712 12.4998 14.1805 12.8622 14.3368C12.9325 14.3672 12.9895 14.3918 13.0313 14.4126C13.2886 14.5406 13.4419 14.5209 13.5903 14.3486C13.7388 14.1762 14.2334 13.6001 14.4066 13.3441C14.5748 13.0881 14.7479 13.1275 14.9854 13.2161C15.2228 13.3047 16.4892 13.9251 16.7464 14.0531C16.7972 14.0784 16.8448 14.1012 16.8889 14.1224C17.0678 14.2082 17.1895 14.2665 17.2411 14.3535C17.3054 14.4618 17.3054 14.9739 17.0927 15.5746C16.8751 16.1752 15.8263 16.7513 15.3514 16.7956C15.3064 16.7999 15.2617 16.8053 15.2156 16.8108C14.7804 16.8635 14.228 16.9303 12.2596 16.1555C9.83424 15.2018 8.23322 12.8354 7.90953 12.357C7.88398 12.3192 7.86638 12.2932 7.85698 12.2806L7.8515 12.2733C7.70423 12.0762 6.80328 10.8707 6.80328 9.62685C6.80328 8.43682 7.38951 7.81726 7.65689 7.53467C7.67384 7.51676 7.6895 7.50021 7.70366 7.48494C7.94107 7.22895 8.21814 7.16495 8.39125 7.16495C8.56445 7.16495 8.73756 7.16495 8.88595 7.16985Z" fill="silver"/>
<path fill-rule="evenodd" clip-rule="evenodd" d="M2.18418 21.3314C2.10236 21.6284 2.37285 21.9025 2.6709 21.8247L7.27824 20.6213C8.7326 21.409 10.37 21.8275 12.0371 21.8275H12.0421C17.5281 21.8275 22 17.3815 22 11.9163C22 9.26735 20.966 6.77594 19.0863 4.90491C17.2065 3.03397 14.7084 2 12.042 2C6.55607 2 2.08411 6.44605 2.08411 11.9114C2.08348 13.65 2.5424 15.3582 3.41479 16.8645L2.18418 21.3314ZM4.86092 17.2629C4.96774 16.8752 4.91437 16.4608 4.71281 16.1127C3.97266 14.8348 3.58358 13.3855 3.58411 11.9114C3.58411 7.28158 7.37738 3.5 12.042 3.5C14.3119 3.5 16.4296 4.37698 18.0281 5.96805C19.6248 7.55737 20.5 9.66611 20.5 11.9163C20.5 16.5459 16.7068 20.3275 12.0421 20.3275H12.0371C10.6206 20.3275 9.22863 19.9718 7.99266 19.3023C7.65814 19.1211 7.26726 19.0738 6.89916 19.17L4.13676 19.8915L4.86092 17.2629Z" fill="silver"/>
</svg>

<svg width="24" height="24" fill="none" xmlns="http://www.w3.org/2000/svg"><path d="M8.886 7.17c.183.005.386.015.579.443.128.285.343.81.519 1.238.137.333.249.607.277.663.064.128.104.275.02.448l-.028.058a1.43 1.43 0 0 1-.23.37 9.386 9.386 0 0 0-.143.17c-.085.104-.17.206-.242.278-.129.128-.262.266-.114.522.149.256.668 1.098 1.435 1.777a6.634 6.634 0 0 0 1.903 1.2c.07.03.127.055.17.076.257.128.41.108.558-.064.149-.173.643-.749.817-1.005.168-.256.34-.216.578-.128.238.089 1.504.71 1.761.837l.143.07c.179.085.3.144.352.23.064.109.064.62-.148 1.222-.218.6-1.267 1.176-1.742 1.22l-.135.016c-.436.052-.988.12-2.956-.655-2.426-.954-4.027-3.32-4.35-3.799a2.768 2.768 0 0 0-.053-.076l-.006-.008c-.147-.197-1.048-1.402-1.048-2.646 0-1.19.587-1.81.854-2.092l.047-.05a.95.95 0 0 1 .687-.32c.173 0 .347 0 .495.005Z" fill="silver"/><path fill-rule="evenodd" clip-rule="evenodd" d="M2.184 21.331a.4.4 0 0 0 .487.494l4.607-1.204a10 10 0 0 0 4.76 1.207h.004c5.486 0 9.958-4.447 9.958-9.912a9.828 9.828 0 0 0-2.914-7.011A9.917 9.917 0 0 0 12.042 2c-5.486 0-9.958 4.446-9.958 9.911 0 1.739.458 3.447 1.33 4.954l-1.23 4.466Zm2.677-4.068a1.5 1.5 0 0 0-.148-1.15 8.377 8.377 0 0 1-1.129-4.202c0-4.63 3.793-8.411 8.458-8.411 2.27 0 4.388.877 5.986 2.468a8.328 8.328 0 0 1 2.472 5.948c0 4.63-3.793 8.412-8.458 8.412h-.005a8.5 8.5 0 0 1-4.044-1.026 1.5 1.5 0 0 0-1.094-.132l-2.762.721.724-2.628Z" fill="silver"/></svg>
